assets/favicon.svg

<svg width="192" height="126" viewBox="0 0 192 126" fill="none" xmlns="http://www.w3.org/2000/svg">
<path d="M100.371 51.2586C104.435 47.0841 117.384 33.852 129.172 21.8343L150.627 0L171.123 0.0759013C182.432 0.126502 191.721 0.227704 191.822 0.328905C191.897 0.430107 191.544 1.06262 191.014 1.72043C190.484 2.40354 178.595 14.4971 164.561 28.6148C150.551 42.7577 137.981 55.4079 134.27 59.203L135.406 60.5439C136.012 61.2776 138.183 63.757 140.202 66.0594C142.222 68.3617 149.037 76.1037 155.347 83.2637C161.658 90.4237 171.073 101.126 176.298 107.046C181.498 112.966 186.748 118.937 187.934 120.329C189.121 121.72 190.56 123.491 191.165 124.25C191.948 125.288 192.15 125.692 191.897 125.819C191.721 125.92 187.531 126.021 182.608 125.996C177.686 125.996 168.7 125.895 151.687 125.566L150.93 124.706C150.501 124.225 142.222 114.914 132.503 103.985C122.811 93.0802 111.098 79.924 106.504 74.788C101.91 69.6267 96.9882 64.086 95.5747 62.4414C94.1611 60.8222 93 59.3295 93 59.1524C93 59.0006 96.3067 55.4332 100.371 51.2586Z" fill="#118260"/>
<path d="M0 25.7515C0 39.892 0.101833 68.2489 0.203666 88.7388L0.381876 126C27.4933 125.899 35.4359 125.747 35.5632 125.646C35.6904 125.519 35.7923 115.072 35.8432 102.424L35.8941 79.4298L83.1164 125.975C112.723 125.975 121.913 125.899 122.651 125.798C123.389 125.696 124 125.494 124 125.342C124 125.216 122.88 123.9 121.531 122.433C120.181 120.966 116.77 117.399 113.945 114.49C111.724 112.163 106.605 106.892 101.47 101.606C100.131 100.226 98.79 98.846 97.4995 97.5166C91.288 91.1166 80.9525 80.467 74.5884 73.8647C68.1987 67.2624 62.42 61.2419 61.7327 60.5083L60.4598 59.1676C62.1574 57.4714 64.9311 54.6954 68.4405 51.1831L68.5064 51.1172C74.4635 45.1552 82.5231 37.0888 91.0335 28.5846C104.602 15.0006 116.388 3.13672 117.228 2.20076C118.069 1.26481 118.654 0.404738 118.552 0.303553C118.425 0.202369 109.006 0.101184 97.6267 0.0758884L76.8795 0L36.7851 40.0438C36.5559 33.6185 36.4796 24.6131 36.4541 15.886L36.4032 0H0V25.7515Z" fill="white"/>
</svg>

<svg width="192" height="126" viewBox="0 0 192 126" fill="none" xmlns="http://www.w3.org/2000/svg"><path d="M100.371 51.259c4.064-4.175 17.013-17.407 28.801-29.425L150.627 0l20.496.076c11.309.05 20.598.152 20.699.253.075.101-.278.734-.808 1.391-.53.684-12.419 12.777-26.453 26.895-14.01 14.143-26.58 26.793-30.291 30.588l1.136 1.34c.606.735 2.777 3.214 4.796 5.516 2.02 2.303 8.835 10.045 15.145 17.205 6.311 7.16 15.726 17.862 20.951 23.782 5.2 5.92 10.45 11.891 11.636 13.283a179.22 179.22 0 0 1 3.231 3.921c.783 1.038.985 1.442.732 1.569-.176.101-4.366.202-9.289.177-4.922 0-13.908-.101-30.921-.43l-.757-.86-18.427-20.721a17139.834 17139.834 0 0 0-25.999-29.197c-4.594-5.161-9.516-10.702-10.93-12.347C94.162 60.822 93 59.33 93 59.152c0-.151 3.307-3.719 7.371-7.893Z" fill="#118260"/><path d="M0 25.752c0 14.14.102 42.497.204 62.987L.382 126c27.111-.101 35.054-.253 35.181-.354.127-.127.23-10.574.28-23.222l.051-22.994 47.222 46.545c29.607 0 38.797-.076 39.535-.177.738-.102 1.349-.304 1.349-.456 0-.126-1.12-1.442-2.469-2.909-1.35-1.467-4.761-5.034-7.586-7.943-2.221-2.327-7.34-7.598-12.475-12.884l-3.97-4.09c-6.212-6.4-16.547-17.049-22.912-23.651-6.39-6.603-12.168-12.623-12.855-13.357l-1.273-1.34 7.98-7.985.066-.066c5.957-5.962 14.017-14.028 22.528-22.532C104.602 15 116.388 3.137 117.228 2.2c.841-.936 1.426-1.796 1.324-1.897-.127-.102-9.546-.203-20.925-.228L76.879 0 36.785 40.044c-.23-6.425-.305-15.43-.33-24.158L36.402 0H0v25.752Z" fill="#fff"/></svg>
